X: 9486
T: Dark Girl Dressed In Blue
R: polka
M: 2/4
K: Dmajor
|:FA Ad|Bd A>F|GB AF/A/|BE G/F/E/D/|
FA Ad|B/c/d/B/ A>F|GB A/B/A/G/|FD D2:|
|:FA A/B/d/e/|f/e/f/d/ e>d|Bd/B/ A/D/F/A/|BE G/F/E/D/|
FA A/B/d/e/|f>d e>d|Bd/B/ A/B/A/G/|FD D2:|

